Bloom-Colors/scalable/devices/printer-network-symbolic.svg

<svg width="16" height="16" version="1.1" xmlns="http://www.w3.org/2000/svg">
<path d="m1 10v3s0 1 1 1h5v2h2v-2h5c1 0 1-1 1-1v-3zm2 1h1v1h-1z" fill="#666"/>
<path d="m2 5c-0.5 0-1 0.5-1 1v3h14v-3c0-0.5-0.5-1-1-1z" fill="#666"/>
<path d="m4 1v3h8v-3z" fill="#666"/>
</svg>

<svg xmlns="http://www.w3.org/2000/svg" width="16" height="16" version="1.1">
 <path style="fill:#444444" d="M 1,10 V 13 C 1,13 1,14 2,14 H 7 V 16 H 9 V 14 H 14 C 15,14 15,13 15,13 V 10 Z M 3,11 H 4 V 12 H 3 Z"/>
 <path style="fill:#444444" d="M 2,5 C 1.5,5 1,5.5 1,6 V 9 H 15 V 6 C 15,5.5 14.5,5 14,5 Z"/>
 <path style="fill:#444444" d="M 4,1 V 4 H 12 V 1 Z"/>
</svg>
